X:187
%%etbk:tnset id:59,pos:1,rep:3x,ant:
%%etbk:tnset id:257,pos:12,rep:2x,ant:
%%etbk:tnset id:292,pos:1,rep:2x,ant:
%%etbk:wsite http://www.thesession.org/tunes/display/423
%%etbk:pldat 2016-06-23T18:15,2016-06-21T15:57,2016-05-05T14:39,2016-05-04T15:18,2016-05-02T18:50,2016-04-09T15:52,2016-04-07T16:56,2016-04-05T16:23,2016-04-03T14:47,2016-03-30T16:54,2016-03-10T18:11,2016-03-08T17:44,2016-02-29T19:36,2016-02-23T16:53,2015-10-29T18:52,2015-10-27T16:28,2015-10-24T15:47,2015-10-20T16:12,2015-10-06T17:16,2015-09-30T16:32,2015-06-23T18:32,2015-06-16T16:45,2015-03-13T18:02,2015-03-10T16:08,2015-03-04T15:24,2015-02-16T19:52,2015-02-12T19:29,2015-02-04T16:35,2014-11-06T18:37,2014-11-04T15:29,2014-10-28T15:59,2014-10-25T15:02,2014-10-23T19:12,2014-09-04T19:01,2014-09-03T19:13,2014-09-02T19:03,2014-09-01T19:02,2014-08-31T14:21,2014-08-27T19:15,2014-08-21T18:27,2014-08-20T19:02,2014-06-22T16:07,2014-06-15T13:13,2014-03-04T18:12,2014-02-25T18:08,2014-01-22T16:02,2014-01-21T17:01,2014-01-19T13:27,2014-01-18T14:02,2014-01-15T16:09,2014-01-14T18:26,2014-01-07T15:46,2013-10-29T15:42,2013-10-27T14:34,2013-10-18T16:22,2013-10-15T18:05,2013-10-10T19:54
T: Mouth Of The Tobique, The
Z: Piano Box Version by Martin Fleischmann
H: Created 2013-02-19 /  Last Modified 2013-02-19
M: 4/4
L: 1/8
R: reel
K: Gmaj
|: "G"!1!G!2!G!1!GA !3!B!4!ded | !3!B!4!dBA !1!GAB!1!G | "D"!4!ABA!2!F !1!DE!3!F!1!D | "G"!3!G!1!ABc !4!d2 !1!(3DE!3!F | 
"G"!1!G2GA !3!B!4!ded | !3!B!4!dBA !1!GAB!1!G | "D"!4!ABA!2!F !1!DE!3!F!1!D | "G"!3!G!5!BAF !3!!1!G4:|
|: "G"!4!g3a !4!g!2!d!1!B!2!d | "D"!4!f!2!d!1!A!2!d !4!f2gf | "C"!3!e!2!c!1!A!3!G "D"!2!FGAF | "G"!3!G!1!ABc !4!d2!2!ef |
 "G"!4!g3a !4!g!2!d!1!B!2!d | "D"!4!f!2!d!1!A!2!d !4!f2gf | "C"!3!e!2!c!1!A!3!G "D"!2!FGAF | "G"!3!G!5!BAF !3!!1!G4:|
|: "G"!1!G2!3!BG G!4!cGG | !3!B!1!GG!4!c GGB!1!G | "D"!2!F!1!GAB !4!c!1!A!2!F!1!D | "G"!3!G!1!ABc !4!d2 !1!(3DE!3!F |
"G"!1!G2!3!BG G!4!cGG | !3!B!1!GG!4!c GGB!1!G | "D"!2!F!1!GAB !4!c!1!A!2!F!1!D  | "G"!3!G!5!BAF !3!!1!G4:|


